!!!COM: Anonymous
!!!CDT: [?]
!!!OTL@@POL: Ziemia ożyła
!!!TXO: Polish
!!!ODT: 
!!!GTL: Hymnbook E
!!!ARL: Opactwo św. Wojciecha, Staniątki 
!!!voices:	3
**kern	**kern	**text	**text	**kern	**text	**text
*staff3	*staff2	*staff2	*staff2	*staff1	*staff1	*staff1
*I"Basso	*I"Canto II	*	*	*I"Canto I	*	*
=1-	=1-	=1-	=1-	=1-	=1-	=1-
*clefF4	*clefG2	*	*	*clefG2	*	*
*k[b-]	*k[b-]	*	*	*k[b-]	*	*
*M3/2	*M3/2	*	*	*M3/2	*	*
2F\	2a/	Zie-	Bo-	2cc\	Zie-	Bo-
2F\	4a/	-mia	-ga-	4cc\	-mia	-ga-
.	4g/	.	.	4b-\	.	.
2F\	4a/	o-	-ro-	4cc\	o-	-ro-
.	4b-\	.	.	4dd\	.	.
=2	=2	=2	=2	=2	=2	=2
1F	1a	-ży-	-dzi-	1cc	-ży-	-dzi-
2F\	2a/	-ła	-co	2cc\	-ła	-co
=3	=3	=3	=3	=3	=3	=3
2.F\	2.a/	nie-	a	2.cc\	nie-	a
4D\	4f/	-bo	pie-	4a/	-bo	pie-
2E-\	4g/	try-	-kło	4b-\	try-	-kło
.	4a/	.	.	4cc\	.	.
=4	=4	=4	=4	=4	=4	=4
2BB-/	2b-\	-umf	za-	2dd\	-umf	za-
2F\	2.b-\	gra-	-drża-	1cc	gra-	-drża-
2FF/	.	.	.	.	.	.
.	4a/	.	.	.	.	.
=5	=5	=5	=5	=5	=5	=5
1.BB-	1.b-	-ło	-ło	1.b-	-ło	-ło
!!linebreak:original
=6:|!	=6:|!	=6:|!	=6:|!	=6:|!	=6:|!	=6:|!
!!linebreak:original
2BB-/	2b-\	W͜pier-	.	2dd\	W͜pier-	.
2BB-/	4b-\	-wszym	.	4dd\	-wszym	.
.	4cc\	.	.	4ee-\	.	.
2BB-/	2dd\	mo-	.	2ff\	mo-	.
=7	=7	=7	=7	=7	=7	=7
1C	1cc	-men-	.	1ee-	-men-	.
4D\	2b-\	-cie	.	2dd\	-cie	.
4E-\	.	.	.	.	.	.
=8	=8	=8	=8	=8	=8	=8
2.F\	2.a/	nie-	.	2.cc\	nie-	.
4D\	4b-\	-po-	.	4dd\	-po-	.
2E-i\	2g/	-ka-	.	2ee-\	-ka-	.
=9	=9	=9	=9	=9	=9	=9
2BB-/	2b-\	-la-	.	2dd\	-la-	.
1F	2.b-\	-ne-	.	1cc	-ne-	.
.	4a/	.	.	.	.	.
=10	=10	=10	=10	=10	=10	=10
1.BB-	1.b-	-go	.	1.b-	-go	.
=11	=11	=11	=11	=11	=11	=11
2F\	2a/	Po-	.	2cc\	Po-	.
2BB-/	4b-\	-czę-	.	4dd\	-czę-	.
.	4a/	.	.	4cc\	.	.
2D\	4g/	-cia	.	4b-\	-cia	.
.	4f/	.	.	4a/	.	.
=12	=12	=12	=12	=12	=12	=12
1C	2.f/	twe-	.	1g	twe-	.
.	4e/	.	.	.	.	.
2FF/	2f/	-go	.	2f/	-go	.
=13	=13	=13	=13	=13	=13	=13
!!linebreak:original
2F\	2a/	po-	.	2cc\	po-	.
2BB-/	4b-\	-czę-	.	4dd\	-czę-	.
.	4a/	.	.	4cc\	.	.
2F\	4g/	-cia	.	4b-\	-cia	.
.	4f/	.	.	4a/	.	.
=14	=14	=14	=14	=14	=14	=14
1C	2.f/	twe-	.	1g	twe-	.
.	4e/	.	.	.	.	.
2F\	2f/	-go	.	2f/	-go	.
=15	=15	=15	=15	=15	=15	=15
2F\	2a/	po-	.	2cc\	po-	.
2BB-/	2b-\	-czę-	.	2dd\	-czę-	.
2D\	2a/	-cia	.	2ff\	-cia	.
=16	=16	=16	=16	=16	=16	=16
1.C	1.g	twe-	.	1ff	twe-	.
.	.	.	.	2ee\	.	.
=17	=17	=17	=17	=17	=17	=17
1.FF	1.a	-go.	.	1.ff	-go.	.
==	==	==	==	==	==	==
*-	*-	*-	*-	*-	*-	*-
!!!GTL: Hymnbook E
!!!EFL: 101/117
!!!YEM: Creative Commons CC/BY/NC/SA 4.0
!!!ENC: Marcin Konik
!!!END: 
!!!EED: Marcin Konik
!!!EEV: 
!!!ONB: Translated from MusicXML and edited by Marcin Konik
!!!CharacterEncoding: utf-8
!!!RDF**kern: l=long note in original notation
!!!RDF**kern: i=editorial accidental
!!muse2ps: z14jc180F
